src/img/projects/zendesk.svg

<?xml version="1.0" encoding="UTF-8"?>
<svg width="90px" height="90px" viewBox="0 0 90 90" version="1.1" xmlns="http://www.w3.org/2000/svg" xmlns:xlink="http://www.w3.org/1999/xlink">
    <!-- Generator: Sketch 41.2 (35397) - http://www.bohemiancoding.com/sketch -->
    <title>community/card/logo/zendesk</title>
    <desc>Created with Sketch.</desc>
    <defs></defs>
    <g id="Symbols" stroke="none" stroke-width="1" fill="none" fill-rule="evenodd">
        <g id="community/card/logo/zendesk" fill="#FFFFFF">
            <path d="M69.4391159,50.4140368 C66.9370389,51.8188046 64.2140864,52.486732 61.5353091,52.486732 C59.7895096,52.486732 58.0613801,52.1969434 56.6018352,51.6155992 C53.9336599,54.022258 51.0622791,55.7079794 49.6168702,56.490762 C51.7107694,59.8127286 55.0398041,62.3660487 59.1533883,63.3909108 C60.4256309,63.7089714 61.7031744,63.8573997 62.9559799,63.8573997 C65.7690495,63.8573997 68.476099,63.0869862 70.7767376,61.8483167 C71.1177692,60.5336661 71.2874016,59.1819084 71.2874016,57.8160146 C71.2874016,55.3033356 70.6866204,52.7641515 69.4391159,50.4140368 Z M66.1789944,30.6041602 C65.7054374,33.7635625 64.3377767,36.5730981 62.4223448,38.6634633 C62.523064,39.2183024 62.5919772,39.8261517 62.5919772,40.4622729 C62.5831422,44.1570773 60.6765454,47.3712567 58.2946246,49.9581499 C58.976688,50.0429661 59.6640523,50.0906752 60.3461157,50.0906752 C63.7422965,50.0906752 67.1649823,49.002201 70.0611011,46.7457375 C73.4060388,44.1217372 75.4186558,40.4198648 76,36.6455453 C73.7470705,33.6822804 70.4374729,31.5565751 66.7497365,30.6288983 C66.5589001,30.5882572 66.3839668,30.512276 66.1895964,30.478703 L66.1789944,30.6041602 Z M63.6645483,27.9024118 C63.6645483,23.6474673 61.989429,19.7918656 59.3671957,17 L59.1392523,17 C55.3755348,17 52.0783062,18.3376217 49.0885362,21.0429041 C51.9457809,24.0803832 52.9724099,27.9324509 52.9724099,31.7827516 C52.9724099,32.0937442 52.9618079,32.4012028 52.9529729,32.6998264 C53.5979292,32.5372621 54.2481865,32.4595139 54.8878418,32.4595139 L55.0574741,32.4595139 C57.515376,32.50899 59.992715,33.7299895 61.4133858,36.0306281 C62.8375907,33.6522413 63.6645483,30.8780458 63.6645483,27.9024118 Z M35.2688015,17.2809536 C35.0337901,17.2809536 34.8093806,17.2809536 34.7263315,17.2350115 C32.1553413,20.0586831 30.6109802,23.7888276 30.6109802,27.8529357 C30.6109802,27.9112468 30.6109802,27.9607229 30.5897762,27.992529 C30.7682435,27.992529 30.9484779,27.987228 31.1322463,27.987228 C35.4631719,27.987228 39.4265609,29.7118234 42.2343295,32.487786 C44.5915122,32.6538843 47.003472,33.9049228 48.2739475,36.3875628 C48.9560109,35.0534751 49.9685039,34.0780892 51.0375411,33.5797942 C51.0375411,33.4030938 51.0446091,33.2175584 51.0446091,33.0355571 C51.0446091,28.6851944 49.2440325,24.3454337 45.7418315,21.2443425 C42.7308575,18.5761672 38.991878,17.2809536 35.2688015,17.2809536 Z M40.1740033,32.7917106 C40.1740033,32.7917106 40.1740033,32.7917106 40.1704693,32.7917106 L40.1704693,32.7952446 C40.1704693,32.7917106 40.1740033,32.7917106 40.1740033,32.7917106 Z M39.6845434,32.7104284 C37.3185256,31.3303987 34.6008742,30.5564511 31.7471635,30.5564511 C30.8318557,30.5564511 29.8988778,30.6359663 28.976502,30.8038316 C24.7834026,31.5565751 21.2776676,33.8890198 19,36.9565379 C19.6184512,40.7520615 21.6240002,44.3249426 24.8629177,46.8499907 C27.2289355,43.6764524 30.5438341,41.6267283 33.9700539,40.9694029 C33.9700539,40.8086056 33.9629859,40.6283713 33.9629859,40.4587389 C33.9559179,36.1596193 36.6276273,33.496745 39.6845434,32.7104284 Z M25.8100316,50.4511439 C24.5572261,52.8083266 23.9599789,55.3298407 23.9599789,57.8230826 C23.9599789,59.3144336 24.1702523,60.7863476 24.495381,62.0974642 C26.7907186,63.3555707 29.3864468,64.0323331 32.0687581,64.0323331 C33.3356997,64.0323331 34.6203112,63.8803708 35.9155248,63.5640771 C35.517949,62.1310373 35.3253457,60.7015314 35.3253457,59.2826276 C35.3253457,55.9076508 36.3961498,52.6687333 38.2939116,49.986422 C36.4650629,48.012679 34.9136338,45.6767004 34.2757456,43.0350301 C30.7594085,44.3373117 27.6971914,46.8835638 25.8100316,50.4511439 Z M47.6943704,73.2525575 C51.2336785,71.7223324 54.2234484,68.9127968 55.8826648,65.1490793 C51.8468287,63.477494 48.8658937,60.3392957 47.3568727,56.7169384 C46.0669601,56.0507781 42.7379255,54.1865894 39.7039804,51.3964908 C38.5571951,53.6211482 37.9475789,56.1020212 37.9475789,58.6323703 C37.9475789,60.7757456 38.3734267,62.9562279 39.3205406,65.0412921 C41.0592721,68.9375349 44.1798004,71.7700415 47.6943704,73.2525575 Z" id="community/icon-zendesk"></path>
        </g>
    </g>
</svg>

<svg width="90" height="90" viewBox="0 0 90 90" xmlns="http://www.w3.org/2000/svg"><title>community/card/logo/zendesk</title><path d="M69.44 50.414a16.114 16.114 0 0 1-7.905 2.073c-1.745 0-3.474-.29-4.933-.871-2.668 2.406-5.54 4.092-6.985 4.875a15.734 15.734 0 0 0 9.536 6.9c1.273.318 2.55.466 3.803.466 2.813 0 5.52-.77 7.82-2.009.342-1.314.511-2.666.511-4.032 0-2.513-.6-5.052-1.848-7.402zm-3.261-19.81c-.474 3.16-1.841 5.97-3.757 8.06.101.554.17 1.162.17 1.798-.009 3.695-1.915 6.91-4.297 9.496a15.75 15.75 0 0 0 11.766-3.212A15.978 15.978 0 0 0 76 36.646c-2.253-2.964-5.563-5.09-9.25-6.017-.191-.04-.366-.117-.56-.15l-.011.125zm-2.514-2.702A15.93 15.93 0 0 0 59.367 17h-.228c-3.763 0-7.06 1.338-10.05 4.043 2.857 3.037 3.883 6.89 3.883 10.74 0 .31-.01.618-.019.917a7.916 7.916 0 0 1 1.935-.24h.17c2.457.049 4.935 1.27 6.355 3.57a15.761 15.761 0 0 0 2.252-8.128zM35.269 17.281c-.235 0-.46 0-.543-.046a15.721 15.721 0 0 0-4.115 10.618c0 .058 0 .108-.021.14.178 0 .358-.006.542-.006 4.331 0 8.295 1.725 11.102 4.5 2.358.167 4.77 1.418 6.04 3.9.682-1.334 1.695-2.309 2.764-2.807 0-.177.007-.362.007-.544 0-4.35-1.801-8.69-5.303-11.792a15.723 15.723 0 0 0-10.473-3.963zm4.905 15.51h-.004v.004c0-.003.004-.003.004-.003zm-.49-.08a15.72 15.72 0 0 0-10.707-1.907A15.938 15.938 0 0 0 19 36.957a15.731 15.731 0 0 0 5.863 9.893c2.366-3.174 5.68-5.223 9.107-5.88 0-.161-.007-.342-.007-.511-.007-4.3 2.665-6.962 5.722-7.749zM25.81 50.45a15.656 15.656 0 0 0-1.85 7.372c0 1.491.21 2.963.535 4.274a15.737 15.737 0 0 0 7.574 1.935c1.267 0 2.551-.152 3.847-.468a15.958 15.958 0 0 1-.59-4.281c0-3.375 1.07-6.614 2.968-9.297-1.829-1.973-3.38-4.31-4.018-6.951a15.718 15.718 0 0 0-8.466 7.416zm21.884 22.802c3.54-1.53 6.53-4.34 8.189-8.104-4.036-1.672-7.017-4.81-8.526-8.432-1.29-.666-4.62-2.53-7.653-5.32a15.798 15.798 0 0 0-1.756 7.235c0 2.144.425 4.324 1.373 6.41a16 16 0 0 0 8.373 8.21z" fill="#FFF" fill-rule="evenodd"/></svg>
